UI/Travel-Transport-Tracking/SVG/arrival-airport_solid_24px.svg

<svg width="24" height="24" viewBox="0 0 24 24" fill="none" xmlns="http://www.w3.org/2000/svg">
<path d="M22 22H12V20H22V22ZM19.86 15.5L18.62 12.85C18.4211 12.5094 18.1299 12.2321 17.78 12.05L14.33 10.53L13.38 4.53L10.85 3.25L9.27 8L5.5 6.16L4.5 3.25L2 2V8.31L18.55 16.89C18.7417 16.9837 18.9584 17.0137 19.1684 16.9754C19.3783 16.9372 19.5705 16.8328 19.7169 16.6775C19.8633 16.5221 19.9561 16.3241 19.9819 16.1122C20.0076 15.9004 19.9649 15.6858 19.86 15.5ZM11.8 15.59L8 13.69L5.79 16.53L7.06 17.17L11.8 15.59Z" fill="#0F1621"/>
</svg>

<svg xmlns="http://www.w3.org/2000/svg" width="24" height="24" viewBox="0 0 24 24"><rect width="24" height="24" style="fill:none"/><path d="M22,22H12V20H22Zm-2.14-6.5-1.24-2.65a2.09,2.09,0,0,0-.84-.8l-3.45-1.52-.95-6L10.85,3.25,9.27,8,5.5,6.16l-1-2.91L2,2V8.31l16.55,8.58A1,1,0,0,0,19.86,15.5Zm-8.06.09L8,13.69,5.79,16.53l1.27.64Z"/></svg>
